X: 135
T: Sleep Sound In The Morning
R: reel
M: C|
L: 1/8
K: Amin
eaag a2ef|gedB GABG|E2ag a2ef|1 gedB A3G:|2 gedB A3B||
cAeA cAeA|BcdB G3B|cAeA cAeA|BAGB A3B|
cAeA cAeA|BcdB G3B|ABcd efga|gedB BAAG|]

